X:189
T:Braes of Auchtertyre, The
T:Braes of Auchtentyre, The
S:Scottish Fiddlers and their Music (Edinburgh 1983)
Z:Nigel Gatherer
M:4/4
L:1/8
K:C
C3 D EGGA|cded cAGc|A/A/A AG A2 a2|ecge d2 c2|
C3 D EGGA|cded cAGc|AcGA FGEc|d/c/B/A/ cE D2 C2:|
efga gecg|afdf edcG|A/A/A ag a2 c'2|ecge d2 c2|
efga gecg|afdf edcG|AcGA FGEc|d/c/B/A/ cE D2 C2:|
